img/card2.svg

<svg width="61" height="91" viewBox="0 0 61 91" fill="none" xmlns="http://www.w3.org/2000/svg">
<rect x="0.392578" y="0.0498047" width="60.057" height="90.0855" rx="4.61977" fill="white"/>
<mask id="mask0_1592_9465" style="mask-type:alpha" maskUnits="userSpaceOnUse" x="1" y="1" width="58" height="87">
<path d="M11.2824 2.3597H53.5203C55.7528 2.3597 57.5626 4.1695 57.5626 6.402L57.5625 70.3449C57.5625 71.707 56.4583 72.8112 55.0962 72.8112C53.5609 72.8112 52.1925 73.7794 51.6815 75.2272L49.4244 81.6224C49.0486 82.687 49.3875 83.8729 50.2691 84.5782C51.3757 85.4635 50.7497 87.248 49.3326 87.248H6.32024C4.03624 87.248 2.20584 85.3571 2.28008 83.0743L4.3241 20.222C4.37573 18.6343 5.67773 17.374 7.26623 17.374C9.52984 17.374 11.3649 15.5389 11.3649 13.2753L11.3649 8.21691C11.3649 7.25616 10.9125 6.35148 10.1439 5.77503C8.68518 4.68097 9.45894 2.3597 11.2824 2.3597Z" fill="#C4C4C4" stroke="black" stroke-width="1.15494"/>
</mask>
<g mask="url(#mask0_1592_9465)">
<rect x="6.1678" y="5.24715" width="49.6625" height="79.691" rx="4.0423" stroke="black" stroke-width="1.15494"/>
</g>
<path d="M16.6963 19.6839H11.8157C13.7571 18.5462 14.1011 17.6245 14.256 15.8054L11.0023 17.3568C9.22266 16.1671 9.12927 15.4889 11.0023 14.254L14.256 15.8054L12.629 11.9269C13.6595 9.91289 14.6625 9.98775 15.8828 11.9269L14.256 15.8054L17.9165 14.254C19.3434 15.4658 19.0275 16.145 17.9165 17.3568L14.256 15.8054C14.5519 17.6248 14.9741 18.5255 16.6963 19.6839Z" fill="black"/>
<path d="M14.256 15.8054C14.1011 17.6245 13.7571 18.5462 11.8157 19.6839H16.6963C14.9741 18.5255 14.5519 17.6248 14.256 15.8054ZM14.256 15.8054L11.0023 17.3568C9.22266 16.1671 9.12927 15.4889 11.0023 14.254L14.256 15.8054ZM14.256 15.8054L15.8828 11.9269C14.6625 9.98775 13.6595 9.91289 12.629 11.9269L14.256 15.8054ZM14.256 15.8054L17.9165 14.254C19.3434 15.4658 19.0275 16.145 17.9165 17.3568L14.256 15.8054Z" stroke="black" stroke-width="1.15494"/>
<path d="M44.146 70.5012L49.0266 70.5012C47.0852 71.6388 46.7412 72.5605 46.5863 74.3797L49.84 72.8283C51.6196 74.018 51.713 74.6962 49.84 75.9311L46.5863 74.3797L48.2133 78.2581C47.1828 80.2722 46.1798 80.1973 44.9595 78.2581L46.5863 74.3797L42.9258 75.9311C41.4989 74.7193 41.8148 74.0401 42.9258 72.8283L46.5863 74.3797C46.2903 72.5602 45.8682 71.6595 44.146 70.5012Z" fill="black"/>
<path d="M46.5863 74.3797C46.7412 72.5605 47.0852 71.6388 49.0266 70.5012L44.146 70.5012C45.8682 71.6595 46.2903 72.5602 46.5863 74.3797ZM46.5863 74.3797L49.84 72.8283C51.6196 74.018 51.713 74.6962 49.84 75.9311L46.5863 74.3797ZM46.5863 74.3797L44.9595 78.2581C46.1798 80.1973 47.1828 80.2722 48.2133 78.2581L46.5863 74.3797ZM46.5863 74.3797L42.9258 75.9311C41.4989 74.7193 41.8148 74.0401 42.9258 72.8283L46.5863 74.3797Z" stroke="black" stroke-width="1.15494"/>
<path d="M8.0844 12.9391C8.08026 12.9597 8.0782 12.9825 8.0782 13.0073C8.07406 13.028 8.07199 13.0549 8.07199 13.0879C8.07199 13.121 8.07199 13.1603 8.07199 13.2058C8.07199 13.3175 8.07613 13.4725 8.0844 13.6711C8.09267 13.8654 8.11335 14.0991 8.14643 14.372C7.80732 14.3638 7.49095 14.3596 7.19733 14.3596C6.9037 14.3596 6.62662 14.3596 6.36608 14.3596C5.84914 14.3596 5.40871 14.3638 5.04478 14.372C4.68085 14.3803 4.38103 14.3886 4.1453 14.3968C3.87236 14.4092 3.64697 14.4217 3.46914 14.4341C3.465 14.4217 3.46294 14.4051 3.46294 14.3844C3.4588 14.3679 3.45673 14.3472 3.45673 14.3224C3.45673 14.2976 3.45673 14.2686 3.45673 14.2356C3.45673 14.0949 3.47328 13.8964 3.50636 13.64C3.53945 13.3836 3.61182 13.0941 3.72348 12.7716C3.83927 12.4449 4.00883 12.0995 4.23215 11.7356C4.4596 11.3717 4.76563 11.0098 5.15024 10.65C5.37769 10.435 5.59067 10.2158 5.78918 9.99249C5.98769 9.76917 6.16138 9.53345 6.31026 9.28532C6.45914 9.03718 6.57493 8.77251 6.65764 8.49129C6.74449 8.20594 6.78791 7.89578 6.78791 7.5608C6.78791 7.28785 6.76103 7.06246 6.70727 6.88464C6.65351 6.70267 6.57907 6.56 6.48395 6.45661C6.39297 6.34908 6.28545 6.27464 6.16138 6.23329C6.04145 6.1878 5.91118 6.16505 5.77057 6.16505C5.70854 6.16919 5.64651 6.17953 5.58447 6.19607C5.53071 6.21261 5.47075 6.23743 5.40458 6.27051C5.33841 6.30359 5.27431 6.34908 5.21228 6.40698C5.27431 6.48969 5.32187 6.57654 5.35495 6.66752C5.39217 6.7585 5.42112 6.84328 5.4418 6.92186C5.46247 7.01284 5.47488 7.10382 5.47902 7.1948C5.47902 7.33955 5.45007 7.46568 5.39217 7.5732C5.33427 7.68073 5.25983 7.77171 5.16885 7.84615C5.082 7.92059 4.98482 7.97642 4.8773 8.01364C4.76977 8.05086 4.66432 8.06947 4.56093 8.06947C4.48235 8.06947 4.3769 8.05913 4.24456 8.03845C4.11636 8.01364 3.99022 7.95988 3.86616 7.87717C3.74209 7.79445 3.63457 7.67246 3.54359 7.51117C3.4526 7.34988 3.40711 7.1307 3.40711 6.85362C3.40711 6.58067 3.46915 6.33461 3.59321 6.11543C3.72141 5.89211 3.89097 5.70187 4.10188 5.54472C4.31693 5.38344 4.56506 5.26144 4.84628 5.17873C5.1275 5.09188 5.42319 5.04846 5.73335 5.04846C6.03938 5.04846 6.34335 5.10222 6.64524 5.20974C6.94713 5.31727 7.21594 5.47855 7.45167 5.6936C7.69153 5.90865 7.8859 6.17746 8.03478 6.50003C8.18366 6.81847 8.2581 7.19067 8.2581 7.61663C8.2581 8.13357 8.18572 8.59055 8.04098 8.98756C7.90037 9.38043 7.72254 9.73402 7.5075 10.0483C7.29245 10.3585 7.05672 10.6418 6.80032 10.8982C6.54805 11.1504 6.31026 11.3944 6.08694 11.6302C5.78918 11.9403 5.55966 12.2402 5.39837 12.5296C5.24122 12.815 5.12749 13.0569 5.05719 13.2554C5.47901 13.243 5.87396 13.2203 6.24202 13.1872C6.61008 13.1541 6.93059 13.121 7.20353 13.0879C7.47648 13.0549 7.69152 13.0238 7.84867 12.9949C8.00583 12.9659 8.0844 12.9473 8.0844 12.9391Z" fill="black"/>
<path d="M52.7579 77.246C52.762 77.2253 52.7641 77.2026 52.7641 77.1778C52.7682 77.1571 52.7703 77.1302 52.7703 77.0971C52.7703 77.064 52.7703 77.0247 52.7703 76.9793C52.7703 76.8676 52.7662 76.7125 52.7579 76.514C52.7496 76.3196 52.7289 76.086 52.6959 75.813C53.035 75.8213 53.3513 75.8254 53.645 75.8254C53.9386 75.8254 54.2157 75.8254 54.4762 75.8254C54.9931 75.8254 55.4336 75.8213 55.7975 75.813C56.1614 75.8048 56.4613 75.7965 56.697 75.7882C56.9699 75.7758 57.1953 75.7634 57.3731 75.751C57.3773 75.7634 57.3793 75.7799 57.3793 75.8006C57.3835 75.8172 57.3856 75.8378 57.3856 75.8627C57.3856 75.8875 57.3856 75.9164 57.3856 75.9495C57.3856 76.0901 57.369 76.2886 57.3359 76.545C57.3028 76.8014 57.2305 77.0909 57.1188 77.4135C57.003 77.7402 56.8335 78.0855 56.6101 78.4494C56.3827 78.8134 56.0767 79.1752 55.692 79.535C55.4646 79.7501 55.2516 79.9692 55.0531 80.1926C54.8546 80.4159 54.6809 80.6516 54.532 80.8997C54.3831 81.1479 54.2674 81.4125 54.1846 81.6938C54.0978 81.9791 54.0544 82.2893 54.0544 82.6243C54.0544 82.8972 54.0813 83.1226 54.135 83.3004C54.1888 83.4824 54.2632 83.6251 54.3583 83.7284C54.4493 83.836 54.5568 83.9104 54.6809 83.9518C54.8008 83.9973 54.9311 84.02 55.0717 84.02C55.1337 84.0159 55.1958 84.0055 55.2578 83.989C55.3116 83.9724 55.3715 83.9476 55.4377 83.9145C55.5039 83.8815 55.568 83.836 55.63 83.7781C55.568 83.6954 55.5204 83.6085 55.4873 83.5175C55.4501 83.4266 55.4212 83.3418 55.4005 83.2632C55.3798 83.1722 55.3674 83.0812 55.3633 82.9903C55.3633 82.8455 55.3922 82.7194 55.4501 82.6119C55.508 82.5043 55.5825 82.4133 55.6734 82.3389C55.7603 82.2645 55.8575 82.2086 55.965 82.1714C56.0725 82.1342 56.178 82.1156 56.2814 82.1156C56.3599 82.1156 56.4654 82.1259 56.5977 82.1466C56.7259 82.1714 56.8521 82.2252 56.9761 82.3079C57.1002 82.3906 57.2077 82.5126 57.2987 82.6739C57.3897 82.8352 57.4352 83.0544 57.4352 83.3314C57.4352 83.6044 57.3731 83.8504 57.2491 84.0696C57.1209 84.293 56.9513 84.4832 56.7404 84.6403C56.5254 84.8016 56.2772 84.9236 55.996 85.0063C55.7148 85.0932 55.4191 85.1366 55.1089 85.1366C54.8029 85.1366 54.4989 85.0828 54.197 84.9753C53.8952 84.8678 53.6263 84.7065 53.3906 84.4915C53.1508 84.2764 52.9564 84.0076 52.8075 83.685C52.6586 83.3666 52.5842 82.9944 52.5842 82.5684C52.5842 82.0515 52.6566 81.5945 52.8013 81.1975C52.9419 80.8046 53.1197 80.451 53.3348 80.1367C53.5498 79.8266 53.7856 79.5433 54.042 79.2869C54.2942 79.0346 54.532 78.7906 54.7553 78.5549C55.0531 78.2447 55.2826 77.9449 55.4439 77.6554C55.6011 77.3701 55.7148 77.1281 55.7851 76.9296C55.3633 76.942 54.9683 76.9648 54.6003 76.9979C54.2322 77.0309 53.9117 77.064 53.6388 77.0971C53.3658 77.1302 53.1508 77.1612 52.9936 77.1902C52.8365 77.2191 52.7579 77.2377 52.7579 77.246Z" fill="black"/>
<path d="M33.138 30.0785H28.8675C30.5662 29.0831 30.8672 28.2766 31.0028 26.6848L28.1557 28.0423C26.5986 27.0013 26.5169 26.4078 28.1557 25.3273L31.0028 26.6848L29.5791 23.2912C30.4808 21.5289 31.3584 21.5944 32.4262 23.2912L31.0028 26.6848L34.2057 25.3273C35.4542 26.3877 35.1778 26.9819 34.2057 28.0423L31.0028 26.6848C31.2617 28.2768 31.6311 29.0649 33.138 30.0785Z" fill="black"/>
<path d="M31.0028 26.6848C30.8672 28.2766 30.5662 29.0831 28.8675 30.0785H33.138C31.6311 29.0649 31.2617 28.2768 31.0028 26.6848ZM31.0028 26.6848L28.1557 28.0423C26.5986 27.0013 26.5169 26.4078 28.1557 25.3273L31.0028 26.6848ZM31.0028 26.6848L32.4262 23.2912C31.3584 21.5944 30.4808 21.5289 29.5791 23.2912L31.0028 26.6848ZM31.0028 26.6848L34.2057 25.3273C35.4542 26.3877 35.1778 26.9819 34.2057 28.0423L31.0028 26.6848Z" stroke="black" stroke-width="1.15494"/>
<path d="M33.1375 60.1071L28.867 60.1071C30.5657 61.1025 30.8668 61.909 31.0023 63.5007L28.1553 62.1433C26.5981 63.1843 26.5164 63.7777 28.1553 64.8582L31.0023 63.5007L29.5787 66.8944C30.4803 68.6567 31.3579 68.5912 32.4257 66.8944L31.0023 63.5007L34.2052 64.8582C35.4537 63.7979 35.1774 63.2036 34.2052 62.1433L31.0023 63.5007C31.2612 61.9087 31.6306 61.1206 33.1375 60.1071Z" fill="black"/>
<path d="M31.0023 63.5007C30.8668 61.909 30.5657 61.1025 28.867 60.1071L33.1375 60.1071C31.6306 61.1206 31.2612 61.9087 31.0023 63.5007ZM31.0023 63.5007L28.1553 62.1433C26.5981 63.1843 26.5164 63.7777 28.1553 64.8582L31.0023 63.5007ZM31.0023 63.5007L32.4257 66.8944C31.3579 68.5912 30.4803 68.6567 29.5787 66.8944L31.0023 63.5007ZM31.0023 63.5007L34.2052 64.8582C35.4537 63.7979 35.1774 63.2036 34.2052 62.1433L31.0023 63.5007Z" stroke="black" stroke-width="1.15494"/>
</svg>

<svg width="61" height="91" fill="none" xmlns="http://www.w3.org/2000/svg"><rect x=".39" y=".05" width="60.06" height="90.09" rx="4.62" fill="#fff"/><mask id="a" style="mask-type:alpha" maskUnits="userSpaceOnUse" x="1" y="1" width="58" height="87"><path d="M11.28 2.36h42.24a4.04 4.04 0 0 1 4.04 4.04v63.94c0 1.37-1.1 2.47-2.46 2.47-1.54 0-2.9.97-3.42 2.42l-2.26 6.4a2.65 2.65 0 0 0 .85 2.95 1.5 1.5 0 0 1-.94 2.67H6.32a4.04 4.04 0 0 1-4.04-4.18l2.04-62.85a2.94 2.94 0 0 1 2.95-2.85 4.1 4.1 0 0 0 4.1-4.1V8.23c0-.96-.46-1.87-1.23-2.44a1.9 1.9 0 0 1 1.14-3.42Z" fill="#C4C4C4" stroke="#000" stroke-width="1.15"/></mask><g mask="url(#a)"><rect x="6.17" y="5.25" width="49.66" height="79.69" rx="4.04" stroke="#000" stroke-width="1.15"/></g><path d="M16.7 19.68h-4.88c1.94-1.13 2.28-2.06 2.44-3.87L11 17.36c-1.78-1.2-1.87-1.87 0-3.1l3.26 1.55-1.63-3.88c1.03-2.02 2.03-1.94 3.25 0l-1.62 3.88 3.66-1.56c1.42 1.22 1.1 1.9 0 3.1l-3.66-1.54c.3 1.81.71 2.72 2.44 3.87Z" fill="#000"/><path d="M14.26 15.8c-.16 1.82-.5 2.75-2.44 3.88h4.88c-1.73-1.15-2.15-2.06-2.44-3.87Zm0 0L11 17.37c-1.78-1.2-1.87-1.87 0-3.1l3.26 1.55Zm0 0 1.62-3.87c-1.22-1.94-2.22-2.02-3.25 0l1.63 3.88Zm0 0 3.66-1.55c1.42 1.22 1.1 1.9 0 3.1l-3.66-1.54Z" stroke="#000" stroke-width="1.15"/><path d="M44.15 70.5h4.88c-1.94 1.14-2.29 2.06-2.44 3.88l3.25-1.55c1.78 1.19 1.87 1.87 0 3.1l-3.25-1.55 1.62 3.88c-1.03 2.01-2.03 1.94-3.25 0l1.63-3.88-3.66 1.55c-1.43-1.21-1.12-1.89 0-3.1l3.66 1.55c-.3-1.82-.72-2.72-2.44-3.88Z" fill="#000"/><path d="M46.59 74.38c.15-1.82.5-2.74 2.44-3.88h-4.88c1.72 1.16 2.14 2.06 2.44 3.88Zm0 0 3.25-1.55c1.78 1.19 1.87 1.87 0 3.1l-3.25-1.55Zm0 0-1.63 3.88c1.22 1.94 2.22 2.01 3.25 0l-1.62-3.88Zm0 0-3.66 1.55c-1.43-1.21-1.12-1.89 0-3.1l3.66 1.55Z" stroke="#000" stroke-width="1.15"/><path d="M8.08 12.94v.27a11.9 11.9 0 0 0 .07 1.16l-.95-.01h-.83a59.95 59.95 0 0 0-2.9.07v-.05l-.01-.06v-.08a4.99 4.99 0 0 1 .26-1.47 5.54 5.54 0 0 1 1.43-2.12c.23-.21.44-.43.64-.66.2-.22.37-.46.52-.7a3.4 3.4 0 0 0 .48-1.73c0-.27-.03-.5-.08-.68a1.07 1.07 0 0 0-.23-.42.71.71 0 0 0-.32-.23 1.1 1.1 0 0 0-.39-.06.97.97 0 0 0-.19.03 1.2 1.2 0 0 0-.18.07.82.82 0 0 0-.19.14 1 1 0 0 1 .14.26l.1.25.03.27c0 .15-.03.28-.09.38a.9.9 0 0 1-.22.28.96.96 0 0 1-.6.22l-.33-.03a1.04 1.04 0 0 1-.7-.53c-.09-.16-.13-.38-.13-.66 0-.27.06-.52.18-.73.13-.23.3-.42.51-.58a2.99 2.99 0 0 1 2.54-.33 2.36 2.36 0 0 1 1.4 1.29c.14.32.22.7.22 1.12a4 4 0 0 1-.75 2.43c-.22.3-.45.6-.71.85l-.71.73a4.46 4.46 0 0 0-1.03 1.63 19.75 19.75 0 0 0 3.02-.32ZM52.76 77.25v-.07l.01-.08v-.12a11.83 11.83 0 0 0-.07-1.17l.95.02h.83a59.33 59.33 0 0 0 2.9-.08v.2a4.99 4.99 0 0 1-.26 1.46 5.54 5.54 0 0 1-1.43 2.13c-.23.21-.44.43-.64.65-.2.23-.37.46-.52.71a3.4 3.4 0 0 0-.48 1.72c0 .28.03.5.09.68.05.18.12.33.22.43.09.1.2.18.32.22.12.05.25.07.4.07l.18-.03.18-.08a.82.82 0 0 0 .19-.13 1 1 0 0 1-.14-.26l-.09-.26-.04-.27c0-.14.03-.27.09-.38a.9.9 0 0 1 .22-.27.96.96 0 0 1 .6-.22c.09 0 .2 0 .33.03a1.04 1.04 0 0 1 .7.52c.09.17.14.38.14.66 0 .27-.07.52-.2.74-.12.22-.29.41-.5.57-.21.16-.46.28-.74.37a2.99 2.99 0 0 1-1.8-.03 2.36 2.36 0 0 1-1.4-1.3c-.14-.31-.22-.69-.22-1.11a4 4 0 0 1 .75-2.43c.22-.31.46-.6.71-.85l.72-.74a4.46 4.46 0 0 0 1.03-1.62 19.74 19.74 0 0 0-3.03.32ZM33.14 30.08h-4.27c1.7-1 2-1.8 2.13-3.4l-2.84 1.36c-1.56-1.04-1.64-1.63 0-2.71L31 26.68l-1.42-3.39c.9-1.76 1.78-1.7 2.85 0L31 26.7l3.2-1.36c1.25 1.06.98 1.65 0 2.71L31 26.68c.26 1.6.63 2.38 2.14 3.4Z" fill="#000"/><path d="M31 26.68c-.13 1.6-.43 2.4-2.13 3.4h4.27c-1.5-1.02-1.88-1.8-2.14-3.4Zm0 0-2.84 1.36c-1.56-1.04-1.64-1.63 0-2.71L31 26.68Zm0 0 1.43-3.39c-1.07-1.7-1.95-1.76-2.85 0L31 26.7Zm0 0 3.2-1.35c1.25 1.06.98 1.65 0 2.71L31 26.68Z" stroke="#000" stroke-width="1.15"/><path d="M33.14 60.1h-4.27c1.7 1 2 1.8 2.13 3.4l-2.84-1.36c-1.56 1.04-1.64 1.64 0 2.72L31 63.5l-1.42 3.4c.9 1.76 1.78 1.7 2.85 0L31 63.5l3.2 1.36c1.25-1.06.98-1.66 0-2.72L31 63.5c.26-1.6.63-2.38 2.14-3.4Z" fill="#000"/><path d="M31 63.5c-.13-1.6-.43-2.4-2.13-3.4h4.27c-1.5 1.02-1.88 1.8-2.14 3.4Zm0 0-2.84-1.36c-1.56 1.04-1.64 1.64 0 2.72L31 63.5Zm0 0 1.43 3.4c-1.07 1.7-1.95 1.76-2.85 0L31 63.5Zm0 0 3.2 1.36c1.25-1.06.98-1.66 0-2.72L31 63.5Z" stroke="#000" stroke-width="1.15"/></svg>
